X:1
T:Staten Island, 87.87 D
T:Staten Island, 87.87 D
T:Newell Coe Stewart, 1872
T:Public Domain Courtesy of the Cyber Hymnal™
C:Newell Coe Stewart, 1872
Z:Public Domain
Z:Courtesy of the Cyber Hymnal™
%%score ( 1 2 ) ( 3 4 )
L:1/8
Q:1/4=105
M:4/4
K:Eb
V:1 treble 
V:2 treble 
V:3 bass 
V:4 bass 
V:1
 [EG][DF] | E2 [EG]2 [EB]2 [Ec]2 | [EB]4 [EG]2 [EG][DF] | E2 E2 [B,D]2 [B,E]2 | [DF]6 [DG][DF] | %5
 E2 [EG]2 [EB]2 [Ec]2 | [EB]4 [EG]2 [EG][EG] | [DF]2 [DB]2 [E=A]2 [EF]2 | [DB]6 [Ac][GB] | %9
 [FA]2 [DF]2 [Ac]2 [GB]2 | [GB]4 [EG]2 [GB][GB] | [Ac]2 [Ad]2 [Ge]2 [Ec]2 | [EB]6 [EG][DF] | %13
 E2 [EG]2 [EB]2 [Ec]2 | [EB]4 [EG]2 [EG][EG] | [DF]2 [DB]2 [DA]2 [DF]2 | E6 |] %17
V:2
 x2 | E2 x6 | x8 | E2 E2 x4 | x8 | E2 x6 | x8 | x8 | x8 | x8 | x8 | x8 | x8 | E2 x6 | x8 | x8 | %16
 E6 |] %17
V:3
 [E,B,][E,A,] | [E,G,]2 [E,B,]2 [E,G,]2 [E,A,]2 | [E,G,]4 [E,B,]2 [E,B,][E,A,] | %3
 [E,G,]2 [E,G,]2 [F,A,]2 [E,G,]2 | [B,,B,]6 [B,,B,][B,,A,] | [E,G,]2 [E,B,]2 [E,G,]2 [E,B,]2 | %6
 [E,G,]4 [E,B,]2 [E,B,][E,B,] | [F,B,]2 [F,B,]2 F,2 F,2 | [B,,F,]6 [B,,B,][B,,B,] | %9
 [B,,B,]2 [B,,B,]2 [B,,B,]2 [B,,B,]2 | [E,B,]4 [E,B,]2 [E,B,][E,B,] | %11
 A,2 [F,B,]2 [E,B,]2 [A,,A,]2 | [E,G,]6 [E,B,][E,A,] | [E,G,]2 [E,B,]2 [E,G,]2 [E,B,]2 | %14
 [E,G,]4 [E,B,]2 [E,B,][E,B,] | [B,,B,]2 [B,,B,]2 [B,,B,]2 [B,,A,]2 | [E,G,]6 |] %17
V:4
 x2 | x8 | x8 | x8 | x8 | x8 | x8 | x4 F,2 F,2 | x8 | x8 | x8 | A,2 x6 | x8 | x8 | x8 | x8 | x6 |] %17

